icons/4_Outdated/Stripe v1.svg

<svg width="1024" height="1024" viewBox="0 0 1024 1024" fill="none" xmlns="http://www.w3.org/2000/svg">
<g clip-path="url(#clip0_3_689)">
<path d="M512 1024C794.77 1024 1024 794.77 1024 512C1024 229.23 794.77 0 512 0C229.23 0 0 229.23 0 512C0 794.77 229.23 1024 512 1024Z" fill="#54688C"/>
<path d="M781.67 515.749C781.67 477.399 763.09 447.129 727.59 447.129C692.09 447.129 670.36 477.389 670.36 515.449C670.36 560.539 695.83 583.319 732.36 583.319C750.19 583.319 763.67 579.319 773.86 573.579V543.579C763.67 548.669 751.99 551.819 737.16 551.819C722.63 551.819 709.74 546.729 708.1 529.049H781.36C781.37 527.129 781.67 519.339 781.67 515.749ZM707.67 501.519C707.67 484.589 718.01 477.519 727.45 477.519C736.59 477.519 746.33 484.519 746.33 501.519H707.67ZM612.54 447.139C601.611 447.098 591.09 451.287 583.18 458.829L581.23 449.539H548.23V624.209L585.68 616.269L585.83 573.869C591.22 577.769 599.16 583.309 612.35 583.309C639.17 583.309 663.59 561.739 663.59 514.249C663.46 470.799 638.74 447.129 612.53 447.129L612.54 447.139ZM603.54 550.359C594.7 550.359 589.46 547.209 585.86 543.359L585.71 487.779C589.61 483.439 595 480.439 603.54 480.439C617.17 480.439 626.61 495.719 626.61 515.349C626.61 535.369 617.32 550.349 603.54 550.349V550.359ZM496.72 407.729L534.32 399.789V430.199L496.72 438.289V407.729ZM496.72 449.679H534.32V580.769H496.72V449.679ZM487.58 449.679V484.139C482.94 482.489 467.95 480.389 459.12 491.929V580.769H421.66V449.679H454L456.4 460.769C465.26 444.579 482.79 447.879 487.58 449.679ZM381.36 449.679H409.82V481.589H381.36V534.769C381.36 556.939 405.03 550.049 409.82 548.099V578.509C404.88 581.209 395.89 583.449 383.6 583.449C361.43 583.449 344.8 567.119 344.8 544.949L345 424.999L381.55 417.209L381.36 449.679ZM337.46 541.219C337.46 568.039 316.04 583.469 284.88 583.469C270.809 583.423 256.894 580.517 243.98 574.929V539.269C256.56 546.159 272.44 551.269 284.88 551.269C293.27 551.269 299.26 549.019 299.26 542.129C299.26 524.299 242.33 530.889 242.33 489.549C242.33 463.029 262.56 447.149 292.97 447.149C305.679 447.022 318.293 449.348 330.12 453.999V489.209C318.656 483.186 305.948 479.909 293 479.639C285.06 479.639 280.27 481.889 280.27 487.729C280.24 504.509 337.32 496.569 337.47 541.209L337.46 541.219Z" fill="white"/>
</g>
<defs>
<clipPath id="clip0_3_689">
<rect width="1024" height="1024" fill="white"/>
</clipPath>
</defs>
</svg>

<svg xmlns="http://www.w3.org/2000/svg" viewBox="0 0 1024 1024">
   <circle cx="512" cy="512" r="512" style="fill:#32325d"/>
   <path d="M781.67 515.75c0-38.35-18.58-68.62-54.08-68.62s-57.23 30.26-57.23 68.32c0 45.09 25.47 67.87 62 67.87 17.83 0 31.31-4 41.5-9.74v-30c-10.19 5.09-21.87 8.24-36.7 8.24-14.53 0-27.42-5.09-29.06-22.77h73.26c.01-1.92.31-9.71.31-13.3zm-74-14.23c0-16.93 10.34-24 19.78-24 9.14 0 18.88 7 18.88 24zm-95.13-54.38a42.32 42.32 0 0 0-29.36 11.69l-1.95-9.29h-33v174.67l37.45-7.94.15-42.4c5.39 3.9 13.33 9.44 26.52 9.44 26.82 0 51.24-21.57 51.24-69.06-.13-43.45-24.85-67.12-51.06-67.12zm-9 103.22c-8.84 0-14.08-3.15-17.68-7l-.15-55.58c3.9-4.34 9.29-7.34 17.83-7.34 13.63 0 23.07 15.28 23.07 34.91 0 20.02-9.29 35-23.07 35zM496.72 407.73l37.6-7.94v30.41l-37.6 8.09zm0 41.95h37.6v131.09h-37.6zm-9.14 0v34.46c-4.64-1.65-19.63-3.75-28.46 7.79v88.84h-37.46V449.68H454l2.4 11.09c8.86-16.19 26.39-12.89 31.18-11.09zm-106.22 0h28.46v31.91h-28.46v53.18c0 22.17 23.67 15.28 28.46 13.33v30.41c-4.94 2.7-13.93 4.94-26.22 4.94-22.17 0-38.8-16.33-38.8-38.5L345 425l36.55-7.79zm-43.9 91.54c0 26.82-21.42 42.25-52.58 42.25a103.85 103.85 0 0 1-40.9-8.54v-35.66c12.58 6.89 28.46 12 40.9 12 8.39 0 14.38-2.25 14.38-9.14 0-17.83-56.93-11.24-56.93-52.58 0-26.52 20.23-42.4 50.64-42.4a98.8 98.8 0 0 1 37.15 6.85v35.21a83.56 83.56 0 0 0-37.12-9.57c-7.94 0-12.73 2.25-12.73 8.09-.03 16.78 57.05 8.84 57.2 53.48z" style="fill:#fff"/>
</svg>
